X:96
T: BAUER BAUE KESSEL
N: K2075
O: Europa, Mitteleuropa, Deutschland, Sachsen
R: Kinder - Lied, Reigen, Tanz - Spiel
M: 2/4
L: 1/16
K: G
 | G2G2G2B2 | G4D4 |
G2G2G2B2 | G4D4 |
G2G2G2B2 | G2G2D4 |
d3cB2A2 | G2G2G4

